app/ui/static/images/icons/solid/video-camera-slash.svg

<svg width="20" height="20" viewBox="0 0 20 20" fill="none" xmlns="http://www.w3.org/2000/svg">
<path d="M1 13.75V7.18198L9.81802 16H3.25C2.00736 16 1 14.9926 1 13.75Z" fill="#0F172A"/>
<path d="M13 6.25V12.818L4.18198 4H10.75C11.9926 4 13 5.00736 13 6.25Z" fill="#0F172A"/>
<path d="M19 4.75002C19 4.44668 18.8173 4.1732 18.537 4.05711C18.2568 3.94103 17.9342 4.00519 17.7197 4.21969L14.7197 7.21969C14.579 7.36034 14.5 7.55111 14.5 7.75002V12.25C14.5 12.4489 14.579 12.6397 14.7197 12.7804L17.7197 15.7804C17.9342 15.9949 18.2568 16.059 18.537 15.9429C18.8173 15.8268 19 15.5534 19 15.25V4.75002Z" fill="#0F172A"/>
<path d="M2.28033 4.21967C1.98744 3.92678 1.51256 3.92678 1.21967 4.21967C0.926777 4.51256 0.926777 4.98744 1.21967 5.28033L11.7197 15.7803C12.0126 16.0732 12.4874 16.0732 12.7803 15.7803C13.0732 15.4874 13.0732 15.0126 12.7803 14.7197L2.28033 4.21967Z" fill="#0F172A"/>
</svg>

<svg xmlns="http://www.w3.org/2000/svg" viewBox="0 0 20 20" fill="currentColor" aria-hidden="true">
  <path d="M1 13.75V7.182L9.818 16H3.25A2.25 2.25 0 011 13.75zM13 6.25v6.568L4.182 4h6.568A2.25 2.25 0 0113 6.25zM19 4.75a.75.75 0 00-1.28-.53l-3 3a.75.75 0 00-.22.53v4.5c0 .199.079.39.22.53l3 3a.75.75 0 001.28-.53V4.75zM2.28 4.22a.75.75 0 00-1.06 1.06l10.5 10.5a.75.75 0 101.06-1.06L2.28 4.22z"/>
</svg>
